X:1
T:Auld Lang Syne
C:Scots traditional / Robert Burns (1788)
S:Public domain or original as noted in notes.md
M:4/4
L:1/8
Q:1/4=80
K:Amix
H:A mixolydian starter arrangement for Great Highland Bagpipe. Refs #1
A2 d2 d2 f2 | e2 d2 e2 f2 | A2 d2 d2 f2 | e4 d4 |
f2 a2 a2 f2 | e2 d2 e2 f2 | A2 d2 B2 G2 | A4 A4 |]
